X: 11061
T: Dublin-Cork Train To Killarney, The
R: barndance
M: 4/4
K: Eminor
F2|:BFAF E3/2E3/2D|B,4 B,EFA|B2 A>F G/F/EA2|F>DB,D A,DG,A,/C/|
B3A FE F/E/D|B,3B, B,EFA|d2AG F>A d2|1 B2AF/E/ E F2:|2 BFAF E2 E>E||
|:E>FGA Be3|E2gE fEgD|fdAd BdAd|bdad g>fed|
fBdF G3A|BdAF A3A|BdAG GAD2|1 BFAF E2EE:|2 BFAF E2FA||

